X: 36
T: Prince Eugene
M:2/4
L:1/16
Q:90
C:Trad
S:Martin Nolan CD "Bright Silver Dark Wood"
R:Polka
B:Goodman Manuscripts
K:G
|:GFED G2AB|cBAG B2AG|A2AG A2AB|cBAG E2F2|
GFED G2AB|cBAG B2AG|D2D2 G2Ac|B2GF G4:|
|:Bc|d3d d2dg|fddc B2AG|A2AG A2AB|cBAG E2Bc|
d3d d2dg|fddc B2AG|D2D2 G2Ac|B2GF G4:|
%%sep 1 1 500
